assets/shop-tab/Asset/border.svg

<svg width="377" height="37" viewBox="0 0 377 37" fill="none" xmlns="http://www.w3.org/2000/svg">
<path d="M36.4719 2.88616L36.0281 3.32464C32.1329 7.17292 25.8671 7.17292 21.9719 3.32464L21.5281 2.88616C17.6329 -0.962117 11.3671 -0.962119 7.47192 2.88616L2.97192 7.33194C1.07028 9.21067 0 11.7726 0 14.4457V28.9427C0 33.361 3.58172 36.9427 8 36.9427H367C372.523 36.9427 377 32.4656 377 26.9427V14.4457C377 11.7726 375.93 9.21067 374.028 7.33194L369.528 2.88616C365.633 -0.962119 359.367 -0.962117 355.472 2.88616L355.028 3.32464C351.133 7.17292 344.867 7.17292 340.972 3.32464L340.528 2.88616C336.633 -0.962119 330.367 -0.962117 326.472 2.88616L326.028 3.32464C322.133 7.17292 315.867 7.17292 311.972 3.32464L311.528 2.88616C307.633 -0.962119 301.367 -0.962117 297.472 2.88616L297.028 3.32464C293.133 7.17292 286.867 7.17292 282.972 3.32464L282.528 2.88616C278.633 -0.962119 272.367 -0.962117 268.472 2.88616L268.028 3.32464C264.133 7.17292 257.867 7.17292 253.972 3.32464L253.528 2.88616C249.633 -0.962119 243.367 -0.962117 239.472 2.88616L239.028 3.32464C235.133 7.17292 228.867 7.17292 224.972 3.32464L224.528 2.88616C220.633 -0.962119 214.367 -0.962117 210.472 2.88616L210.028 3.32464C206.133 7.17292 199.867 7.17292 195.972 3.32464L195.528 2.88616C191.633 -0.962119 185.367 -0.962117 181.472 2.88616L181.028 3.32464C177.133 7.17292 170.867 7.17292 166.972 3.32464L166.528 2.88616C162.633 -0.962119 156.367 -0.962117 152.472 2.88616L152.028 3.32464C148.133 7.17292 141.867 7.17292 137.972 3.32464L137.528 2.88616C133.633 -0.962119 127.367 -0.962117 123.472 2.88616L123.028 3.32464C119.133 7.17292 112.867 7.17292 108.972 3.32464L108.528 2.88616C104.633 -0.962119 98.3671 -0.962117 94.4719 2.88616L94.0281 3.32464C90.1329 7.17292 83.8671 7.17292 79.9719 3.32464L79.5281 2.88616C75.6329 -0.962119 69.3671 -0.962117 65.4719 2.88616L65.0281 3.32464C61.1329 7.17292 54.8671 7.17292 50.9719 3.32464L50.5281 2.88616C46.6329 -0.962119 40.3671 -0.962117 36.4719 2.88616Z" fill="url(#paint0_linear_638_1753)"/>
<defs>
<linearGradient id="paint0_linear_638_1753" x1="188.5" y1="-4.05725" x2="188.5" y2="36.9427" gradientUnits="userSpaceOnUse">
<stop stop-color="#0644A3"/>
<stop offset="1" stop-color="#053C8F"/>
</linearGradient>
</defs>
</svg>

<svg xmlns="http://www.w3.org/2000/svg" width="377" height="37" fill="none" viewBox="0 0 377 37"><path fill="url(#a)" d="m36.472 2.886-.444.439a10 10 0 0 1-14.056 0l-.444-.439a10 10 0 0 0-14.056 0l-4.5 4.446A10 10 0 0 0 0 14.446v14.497a8 8 0 0 0 8 8h359c5.523 0 10-4.477 10-10V14.446a10 10 0 0 0-2.972-7.114l-4.5-4.446a10 10 0 0 0-14.056 0l-.444.439a10 10 0 0 1-14.056 0l-.444-.439a10 10 0 0 0-14.056 0l-.444.439a10 10 0 0 1-14.056 0l-.444-.439a10 10 0 0 0-14.056 0l-.444.439a10 10 0 0 1-14.056 0l-.444-.439a10 10 0 0 0-14.056 0l-.444.439a10 10 0 0 1-14.056 0l-.444-.439a10 10 0 0 0-14.056 0l-.444.439a10 10 0 0 1-14.056 0l-.444-.439a10 10 0 0 0-14.056 0l-.444.439a10 10 0 0 1-14.056 0l-.444-.439a10 10 0 0 0-14.056 0l-.444.439a10 10 0 0 1-14.056 0l-.444-.439a10 10 0 0 0-14.056 0l-.444.439a10 10 0 0 1-14.056 0l-.444-.439a10 10 0 0 0-14.056 0l-.444.439a10 10 0 0 1-14.056 0l-.444-.439a10 10 0 0 0-14.056 0l-.444.439a10 10 0 0 1-14.056 0l-.444-.439a10 10 0 0 0-14.056 0l-.444.439a10 10 0 0 1-14.056 0l-.444-.439a10 10 0 0 0-14.056 0"/><defs><linearGradient id="a" x1="188.5" x2="188.5" y1="-4.057" y2="36.943" gradientUnits="userSpaceOnUse"><stop stop-color="#0644a3"/><stop offset="1" stop-color="#053c8f"/></linearGradient></defs></svg>
